!!!COM: Leoš [Leo Eugen] Janáček
!!!OTL: [T145_Jan-w49p20h4m2-10]
**kern	**dynam	**kern	**dynam	**kern	**dynam	**kern	**dynam	**kern	**dynam
*grp:A	*grp:A	*grp:B	*grp:B	*grp:B	*grp:B	*grp:B	*grp:B	*grp:B	*grp:B
*part5	*part5	*part4	*part4	*part3	*part3	*part2	*part2	*part1	*part1
*staff5	*	*staff4	*	*staff3	*	*staff2	*	*staff1	*
*I"Violoncello	*	*I"Viola	*	*I"Violin II	*	*I"Violin I	*	*I"Clarinet in Bb	*
*I'Vc.	*	*I'Vla.	*	*I'Vln. II	*	*I'Vln. I	*	*I'Cl.	*
!!pagebreak:original
*clefF4	*	*clefC3	*	*clefG2	*	*clefG2	*	*clefG2	*
*	*	*	*	*	*	*	*	*ITrd1c2	*
*k[]	*	*k[]	*	*k[]	*	*k[]	*	*k[b-e-]	*
*M2/4	*	*M2/4	*	*M2/4	*	*M2/4	*	*M2/4	*
*>A	*	*	*	*	*	*	*	*	*
!!LO:REH:t=4
=1|:	=1|:	=1|:	=1|:	=1|:	=1|:	=1|:	=1|:	=1|:	=1|:
*>A2	*	*	*	*	*	*	*	*	*
!	!	!	!LO:DY:ed=brack	!	!LO:DY:ed=brack	!	!LO:DY:ed=brack	!	!
(16D-XLL	mf	4.ryy	4ryy	4.ryy	4ryy	4.ryy	4ryy	8ryy	4ryy
16DD-XJ)	.	.	.	.	.	.	.	.	.
8EE-XJ	.	.	.	.	.	.	.	8ryy	.
8C-XL	.	.	.	.	.	.	.	8ryy	.
(16D-L	.	8ryy	.	8ryy	.	8ryy	.	8ryy	.
16FF-XJJ)	.	.	.	.	.	.	.	.	.
=2	=2	=2	=2	=2	=2	=2	=2	=2	=2
(16D-XLL	.	2ryy	.	8ryy	.	8ryy	.	2ryy	.
16DD-XJ)	.	.	.	.	.	.	.	.	.
8EE-XJ	.	.	.	4.ryy	4ryy	4.ryy	4ryy	.	.
8C-XL	.	.	.	.	.	.	.	.	.
(16D-L	.	.	.	.	.	.	.	.	.
16FF-XJJ)	.	.	.	.	.	.	.	.	.
=3	=3	=3	=3	=3	=3	=3	=3	=3	=3
!	!	!	!	!LO:TX:b:i:t=espress.	!	!LO:TX:b:i:t=espress.	!	!	!
(16D-XLL	.	2ryy	.	4.ryy	.	4.ryy	.	2ryy	.
16DD-XJ)	.	.	.	.	.	.	.	.	.
8EE-XJ	.	.	.	.	.	.	.	.	.
8C-XL	.	.	.	.	.	.	.	.	.
(16D-L	.	.	.	8ryy	4ryy	8ryy	4ryy	.	.
16FF-XJJ)	.	.	.	.	.	.	.	.	.
=4	=4	=4	=4	=4	=4	=4	=4	=4	=4
(16D-XLL	.	2ryy	.	4ryy	.	4ryy	.	2ryy	.
16DD-XJ)	.	.	.	.	.	.	.	.	.
8EE-XJ	.	.	.	.	.	.	.	.	.
8C-XL	.	.	.	4ryy	4ryy	4ryy	4ryy	.	.
(16D-L	.	.	.	.	.	.	.	.	.
16FF-XJJ)	.	.	.	.	.	.	.	.	.
=5	=5	=5	=5	=5	=5	=5	=5	=5	=5
(16D-XLL	.	2ryy	.	8ryy	.	8ryy	.	2ryy	.
16DD-XJ)	.	.	.	.	.	.	.	.	.
8EE-XJ	.	.	.	4.ryy	.	4.ryy	.	.	.
8C-XL	.	.	.	.	.	.	.	.	.
(16D-L	.	.	.	.	.	.	.	.	.
16FF-XJJ)	.	.	.	.	.	.	.	.	.
!!linebreak:original
=6:|!	=6:|!	=6:|!	=6:|!	=6:|!	=6:|!	=6:|!	=6:|!	=6:|!	=6:|!
*>	*	*	*	*	*	*	*	*	*
(16D-XLL	mf	8ryy	4ryy	8ryy	.	8ryy	.	8ryy	.
16DD-XJ	.	.	.	.	.	.	.	.	.
8EE-XJ	.	8ryy	.	4.ryy	.	4.ryy	.	8ryy	.
8C-XL	.	8ryy	.	.	.	.	.	8ryy	.
16D-L	.	8ryy	.	.	.	.	.	8ryy	.
16FF-XJJ)	.	.	.	.	.	.	.	.	.
=7	=7	=7	=7	=7	=7	=7	=7	=7	=7
*	*	*tremolo	*	*	*	*	*	*	*
(16D-XLL	.	64ryy	.	4.ryy	.	4.ryy	.	2ryy	.
.	.	64ryy	.	.	.	.	.	.	.
.	.	64ryy	.	.	.	.	.	.	.
.	.	64ryy	.	.	.	.	.	.	.
16DD-XJ	.	64ryy	.	.	.	.	.	.	.
.	.	64ryy	.	.	.	.	.	.	.
.	.	64ryy	.	.	.	.	.	.	.
.	.	64ryy	.	.	.	.	.	.	.
8EE-XJ	.	64ryy	.	.	.	.	.	.	.
.	.	64ryy	.	.	.	.	.	.	.
.	.	64ryy	.	.	.	.	.	.	.
.	.	64ryy	.	.	.	.	.	.	.
.	.	64ryy	.	.	.	.	.	.	.
.	.	64ryy	.	.	.	.	.	.	.
.	.	64ryy	.	.	.	.	.	.	.
.	.	64ryy	.	.	.	.	.	.	.
8C-XL	.	64ryy	.	.	.	.	.	.	.
.	.	64ryy	.	.	.	.	.	.	.
.	.	64ryy	.	.	.	.	.	.	.
.	.	64ryy	.	.	.	.	.	.	.
.	.	64ryy	.	.	.	.	.	.	.
.	.	64ryy	.	.	.	.	.	.	.
.	.	64ryy	.	.	.	.	.	.	.
.	.	64ryy	.	.	.	.	.	.	.
16D-L	.	64ryy	.	8ryy	4ryy	8ryy	4ryy	.	.
.	.	64ryy	.	.	.	.	.	.	.
.	.	64ryy	.	.	.	.	.	.	.
.	.	64ryy	.	.	.	.	.	.	.
16FF-XJJ)	.	64ryy	.	.	.	.	.	.	.
.	.	64ryy	.	.	.	.	.	.	.
.	.	64ryy	.	.	.	.	.	.	.
.	.	64ryy	.	.	.	.	.	.	.
=8	=8	=8	=8	=8	=8	=8	=8	=8	=8
(16D-XLL	.	64ryy	.	4ryy	.	4ryy	.	2ryy	.
.	.	64ryy	.	.	.	.	.	.	.
.	.	64ryy	.	.	.	.	.	.	.
.	.	64ryy	.	.	.	.	.	.	.
16DD-XJ	.	64ryy	.	.	.	.	.	.	.
.	.	64ryy	.	.	.	.	.	.	.
.	.	64ryy	.	.	.	.	.	.	.
.	.	64ryy	.	.	.	.	.	.	.
8EE-XJ	.	64ryy	.	.	.	.	.	.	.
.	.	64ryy	.	.	.	.	.	.	.
.	.	64ryy	.	.	.	.	.	.	.
.	.	64ryy	.	.	.	.	.	.	.
.	.	64ryy	.	.	.	.	.	.	.
.	.	64ryy	.	.	.	.	.	.	.
.	.	64ryy	.	.	.	.	.	.	.
.	.	64ryy	.	.	.	.	.	.	.
8C-XL	.	64ryy	.	4ryy	.	4ryy	.	.	.
.	.	64ryy	.	.	.	.	.	.	.
.	.	64ryy	.	.	.	.	.	.	.
.	.	64ryy	.	.	.	.	.	.	.
.	.	64ryy	.	.	.	.	.	.	.
.	.	64ryy	.	.	.	.	.	.	.
.	.	64ryy	.	.	.	.	.	.	.
.	.	64ryy	.	.	.	.	.	.	.
16D-L	.	64ryy	.	.	.	.	.	.	.
.	.	64ryy	.	.	.	.	.	.	.
.	.	64ryy	.	.	.	.	.	.	.
.	.	64ryy	.	.	.	.	.	.	.
16FF-XJJ)	.	64ryy	.	.	.	.	.	.	.
.	.	64ryy	.	.	.	.	.	.	.
.	.	64ryy	.	.	.	.	.	.	.
.	.	64ryy	.	.	.	.	.	.	.
=9	=9	=9	=9	=9	=9	=9	=9	=9	=9
(16D-XLL	.	64ryy	.	8ryy	.	8ryy	.	2ryy	.
.	.	64ryy	.	.	.	.	.	.	.
.	.	64ryy	.	.	.	.	.	.	.
.	.	64ryy	.	.	.	.	.	.	.
16DD-XJ	.	64ryy	.	.	.	.	.	.	.
.	.	64ryy	.	.	.	.	.	.	.
.	.	64ryy	.	.	.	.	.	.	.
.	.	64ryy	.	.	.	.	.	.	.
8EE-XJ	.	64ryy	.	4.ryy	4ryy	4.ryy	4ryy	.	.
.	.	64ryy	.	.	.	.	.	.	.
.	.	64ryy	.	.	.	.	.	.	.
.	.	64ryy	.	.	.	.	.	.	.
.	.	64ryy	.	.	.	.	.	.	.
.	.	64ryy	.	.	.	.	.	.	.
.	.	64ryy	.	.	.	.	.	.	.
.	.	64ryy	.	.	.	.	.	.	.
8C-XL	.	64ryy	.	.	.	.	.	.	.
.	.	64ryy	.	.	.	.	.	.	.
.	.	64ryy	.	.	.	.	.	.	.
.	.	64ryy	.	.	.	.	.	.	.
.	.	64ryy	.	.	.	.	.	.	.
.	.	64ryy	.	.	.	.	.	.	.
.	.	64ryy	.	.	.	.	.	.	.
.	.	64ryy	.	.	.	.	.	.	.
16D-L	.	64ryy	.	.	.	.	.	.	.
.	.	64ryy	.	.	.	.	.	.	.
.	.	64ryy	.	.	.	.	.	.	.
.	.	64ryy	.	.	.	.	.	.	.
16FF-XJJ)	.	64ryy	.	.	.	.	.	.	.
.	.	64ryy	.	.	.	.	.	.	.
.	.	64ryy	.	.	.	.	.	.	.
.	.	64ryy	.	.	.	.	.	.	.
=10	=10	=10	=10	=10	=10	=10	=10	=10	=10
(16D-XLL	.	64ryy	.	8ryy	.	8ryy	.	2ryy	.
.	.	64ryy	.	.	.	.	.	.	.
.	.	64ryy	.	.	.	.	.	.	.
.	.	64ryy	.	.	.	.	.	.	.
16DD-XJ	.	64ryy	.	.	.	.	.	.	.
.	.	64ryy	.	.	.	.	.	.	.
.	.	64ryy	.	.	.	.	.	.	.
.	.	64ryy	.	.	.	.	.	.	.
8EE-XJ	.	64ryy	.	16ryy	.	16ryy	.	.	.
.	.	64ryy	.	.	.	.	.	.	.
.	.	64ryy	.	.	.	.	.	.	.
.	.	64ryy	.	.	.	.	.	.	.
.	.	64ryy	.	16ryy	.	16ryy	.	.	.
.	.	64ryy	.	.	.	.	.	.	.
.	.	64ryy	.	.	.	.	.	.	.
.	.	64ryy	.	.	.	.	.	.	.
8C-XL	.	64ryy	.	4ryy	.	4ryy	.	.	.
.	.	64ryy	.	.	.	.	.	.	.
.	.	64ryy	.	.	.	.	.	.	.
.	.	64ryy	.	.	.	.	.	.	.
.	.	64ryy	.	.	.	.	.	.	.
.	.	64ryy	.	.	.	.	.	.	.
.	.	64ryy	.	.	.	.	.	.	.
.	.	64ryy	.	.	.	.	.	.	.
16D-L	.	64ryy	.	.	.	.	.	.	.
.	.	64ryy	.	.	.	.	.	.	.
.	.	64ryy	.	.	.	.	.	.	.
.	.	64ryy	.	.	.	.	.	.	.
16FF-XJJ)	.	64ryy	.	.	.	.	.	.	.
.	.	64ryy	.	.	.	.	.	.	.
.	.	64ryy	.	.	.	.	.	.	.
.	.	64ryy	.	.	.	.	.	.	.
*	*	*Xtremolo	*	*	*	*	*	*	*
=	=	=	=	=	=	=	=	=	=
*-	*-	*-	*-	*-	*-	*-	*-	*-	*-
!!!system-decoration: [(s1)][([(s2,s3)]s4,s5)]
